svg/fluentui-system-icons/ic_fluent_square_dismiss_20_regular.svg

<svg width="20" height="20" viewBox="0 0 20 20" fill="none" xmlns="http://www.w3.org/2000/svg">
<path d="M6 3C4.34315 3 3 4.34315 3 6V14C3 15.6569 4.34315 17 6 17H9.59971C9.43777 16.6832 9.30564 16.3486 9.20703 16H6C4.89543 16 4 15.1046 4 14V6C4 4.89543 4.89543 4 6 4H14C15.1046 4 16 4.89543 16 6V9.20703C16.3486 9.30564 16.6832 9.43777 17 9.59971V6C17 4.34315 15.6569 3 14 3H6ZM14.5 19C16.9853 19 19 16.9853 19 14.5C19 12.0147 16.9853 10 14.5 10C12.0147 10 10 12.0147 10 14.5C10 16.9853 12.0147 19 14.5 19ZM16.3536 12.6464C16.5488 12.8417 16.5488 13.1583 16.3536 13.3536L15.2071 14.5L16.3536 15.6464C16.5488 15.8417 16.5488 16.1583 16.3536 16.3536C16.1583 16.5488 15.8417 16.5488 15.6464 16.3536L14.5 15.2071L13.3536 16.3536C13.1583 16.5488 12.8417 16.5488 12.6464 16.3536C12.4512 16.1583 12.4512 15.8417 12.6464 15.6464L13.7929 14.5L12.6464 13.3536C12.4512 13.1583 12.4512 12.8417 12.6464 12.6464C12.8417 12.4512 13.1583 12.4512 13.3536 12.6464L14.5 13.7929L15.6464 12.6464C15.8417 12.4512 16.1583 12.4512 16.3536 12.6464Z" fill="#212121"/>
</svg>

<svg xmlns="http://www.w3.org/2000/svg" width="20" height="20"><path d="M6 3a3 3 0 0 0-3 3v8a3 3 0 0 0 3 3h3.6a5.465 5.465 0 0 1-.393-1H6a2 2 0 0 1-2-2V6a2 2 0 0 1 2-2h8a2 2 0 0 1 2 2v3.207c.349.099.683.23 1 .393V6a3 3 0 0 0-3-3H6Zm8.5 16a4.5 4.5 0 1 0 0-9 4.5 4.5 0 0 0 0 9Zm1.854-6.354a.5.5 0 0 1 0 .708L15.207 14.5l1.147 1.146a.5.5 0 0 1-.708.708L14.5 15.207l-1.146 1.147a.5.5 0 0 1-.708-.708l1.147-1.146-1.147-1.146a.5.5 0 0 1 .708-.708l1.146 1.147 1.146-1.147a.5.5 0 0 1 .708 0Z"/></svg>
